svg/系统配置.svg

<svg width="120" height="120" viewBox="0 0 120 120" fill="none" xmlns="http://www.w3.org/2000/svg">
<rect width="120" height="120" fill="#F5F5F5"/>
<g clip-path="url(#clip0_0_1)">
<rect width="1440" height="1024" transform="translate(-1066 -461)" fill="url(#paint0_linear_0_1)"/>
<rect width="1440" height="1024" transform="translate(-1066 -461)" fill="white"/>
<rect width="120" height="120" rx="30" fill="url(#paint1_linear_0_1)"/>
<path opacity="0.8" d="M60 99C80.9868 99 98 81.9868 98 61C98 40.0132 80.9868 23 60 23C39.0132 23 22 40.0132 22 61C22 81.9868 39.0132 99 60 99Z" fill="url(#paint2_linear_0_1)" fill-opacity="0.6"/>
<path d="M60 68.0996C74.2574 68.0996 85.8925 75.9118 88.0078 85.9141C81.1428 93.6329 71.1407 98.5 60 98.5C48.859 98.4999 38.8562 93.6332 31.9912 85.9141C34.1063 75.9117 45.7425 68.0997 60 68.0996ZM59.5 35.5C67.2487 35.5 73.5 41.5605 73.5 49C73.5 56.4395 67.2487 62.5 59.5 62.5C51.7513 62.5 45.5 56.4395 45.5 49C45.5 41.5605 51.7513 35.5 59.5 35.5Z" fill="url(#paint3_linear_0_1)" stroke="url(#paint4_linear_0_1)"/>
</g>
<defs>
<linearGradient id="paint0_linear_0_1" x1="19" y1="19.5" x2="1412.5" y2="1024" gradientUnits="userSpaceOnUse">
<stop stop-color="#2E7EEA"/>
<stop offset="1" stop-color="#013F92"/>
</linearGradient>
<linearGradient id="paint1_linear_0_1" x1="60" y1="120" x2="60" y2="5.72204e-05" gradientUnits="userSpaceOnUse">
<stop stop-color="#74ABDC"/>
<stop offset="1" stop-color="#52D8E1"/>
</linearGradient>
<linearGradient id="paint2_linear_0_1" x1="60" y1="23" x2="60" y2="99" gradientUnits="userSpaceOnUse">
<stop stop-color="#BFF6FF"/>
<stop offset="1" stop-color="#C6EBFF"/>
</linearGradient>
<linearGradient id="paint3_linear_0_1" x1="60.0002" y1="35" x2="60.0002" y2="99" gradientUnits="userSpaceOnUse">
<stop stop-color="white"/>
<stop offset="1" stop-color="#94E8FF"/>
</linearGradient>
<linearGradient id="paint4_linear_0_1" x1="60.0002" y1="35" x2="60.0002" y2="99" gradientUnits="userSpaceOnUse">
<stop offset="0.0961538" stop-color="white"/>
<stop offset="1" stop-color="#A1FAFF"/>
</linearGradient>
<clipPath id="clip0_0_1">
<rect width="1440" height="1024" fill="white" transform="translate(-1066 -461)"/>
</clipPath>
</defs>
</svg>

<svg fill="none" viewBox="0 0 120 120"><path fill="#F5F5F5" d="M0 0h120v120H0z"/><g clipPath="url(#a)"><path fill="url(#b)" d="M0 0h1440v1024H0z" transform="translate(-1066 -461)"/><path fill="white" d="M-1066-461H374V563h-1440z"/><rect width="120" height="120" fill="url(#c)" rx="30"/><path fill="url(#d)" fillOpacity=".6" d="M60 99c20.987 0 38-17.013 38-38S80.987 23 60 23 22 40.013 22 61s17.013 38 38 38" opacity=".8"/><path fill="url(#e)" stroke="url(#f)" d="M60 68.1c14.257 0 25.893 7.812 28.008 17.814C81.143 93.633 71.14 98.5 60 98.5s-21.144-4.867-28.009-12.586C34.106 75.912 45.743 68.1 60 68.1Zm-.5-32.6c7.749 0 14 6.06 14 13.5s-6.251 13.5-14 13.5-14-6.06-14-13.5 6.251-13.5 14-13.5Z"/></g><defs><linearGradient id="b" x1="19" x2="1412.5" y1="19.5" y2="1024" gradientUnits="userSpaceOnUse"><stop stopColor="#2E7EEA"/><stop offset="1" stopColor="#013F92"/></linearGradient><linearGradient id="c" x1="60" x2="60" y1="120" y2="0" gradientUnits="userSpaceOnUse"><stop stopColor="#74ABDC"/><stop offset="1" stopColor="#52D8E1"/></linearGradient><linearGradient id="d" x1="60" x2="60" y1="23" y2="99" gradientUnits="userSpaceOnUse"><stop stopColor="#BFF6FF"/><stop offset="1" stopColor="#C6EBFF"/></linearGradient><linearGradient id="e" x1="60" x2="60" y1="35" y2="99" gradientUnits="userSpaceOnUse"><stop stopColor="white"/><stop offset="1" stopColor="#94E8FF"/></linearGradient><linearGradient id="f" x1="60" x2="60" y1="35" y2="99" gradientUnits="userSpaceOnUse"><stop offset=".096" stopColor="white"/><stop offset="1" stopColor="#A1FAFF"/></linearGradient><clipPath id="a"><path fill="white" d="M-1066-461H374V563h-1440z"/></clipPath></defs></svg>
